X:1
T:Title
%%score { ( 1 2 5 ) | ( 3 4 ) }
L:1/8
Q:1/4=90
M:6/8
K:Ab
V:1 treble nm="Grand Piano"
V:2 treble 
V:5 treble 
V:3 bass 
V:4 bass 
V:1
 [Ec]2 [Ec] cB[A,EA] | A2 A BAF | [CE]2 [CE] [CA]2 [CA] | cB[A,EA] [EB]3 | [Ec]2 [Ec] cB[A,EA] | %5
w: A.~J.~Buchanan * * * *|||||
 A2 A BA[A,DF] | [A,CE]2 [G,E] [A,EA]2 [A,FA] | [Ec]2 [DB] [CA]3 | c2- [A,c-] [A,-c]A,[=Ec] | %9
w: ||||
 [FA]6 | .[GB]6 | [Ac]6[K:bass] | [DA]3[K:treble] z3 | [CE]6 |[M:7/8] BAB c3 B |[M:3/4] [CA]6 |] %16
w: |||||||
V:2
 z3 .E3 | x6 | x6 | .E3 z3 | z3 .E3 | x6 | x6 | x6 | E6 | z2 C C2 A | z2 G, z =A[GB] | %11
 z2[K:bass] E, E,3 | z2 [D,F,][K:treble] [FB]A[A,DF] | A,2 A, A,2 A/A/ |[M:7/8] x7 |[M:3/4] x6 |] %16
V:3
 [A,,A,]2 [A,,A,] E,-[B,,E,]C, | [D,F,D]2 [D,F,D] [D,F,D]2 [D,A,D] | %2
 [A,,A,]2 [A,,A,] [A,,A,]2 [A,,A,] | E,-[B,,E,]C, [E,G,]3 | [A,,A,]2 [A,,A,] E,-[B,,E,]C, | %5
 [D,F,D]2 [D,F,D] [D,F,D]2 D, | A,,2 B,, C,2 D, | [E,A,]2 [E,G,] [A,,A,]3 | %8
 [A,,A,]2 A,, z[K:treble] _c[K:bass][C,B,] | [F,C]2 F, F,2 [F,A,F] | [E,G,]2 E, z _GE, | %11
 [A,,E,]2 A,, A,,3 | .[D,F,]3 z ED, | A,,2 A,, A,,2 [E,A,C]/[E,A,C]/ | %14
[M:7/8] [E,G,D][E,G,C][E,G,D] [E,A,E]3 [E,G,D] |[M:3/4] [A,,E,A,]6 |] %16
V:4
 z3 .A,,3 | x6 | x6 | .A,,3 z3 | z3 .A,,3 | x6 | x6 | x6 | z3 .A,,3[K:treble][K:bass] | x6 | %10
 z3 .E,3 | x6 | z3 .[D,F,]3 | x6 |[M:7/8] x7 |[M:3/4] x6 |] %16
V:5
 x6 | x6 | x6 | x6 | x6 | x6 | x6 | x6 | x6 | x6 | z3 .G,3 | x2[K:bass] x4 | x3[K:treble] x3 | x6 | %14
[M:7/8] x7 |[M:3/4] x6 |] %16

